X:1
T:Hej, rozmaring, rozmaring
C:Hungarian folk song
Z:Public Domain
L:1/4
M:4/4
K:C
V:1 treble nm="Voice"
%%MIDI program 52
V:1
 d d d/ d3/2 | d e c2 | B/ A3/2 G c | B/ A3/2 A z | c d A G | c A F2 | E/ D3/2 C F | E/ D3/2 D z |] %8
w: Hej, roz- ma- ring,|roz- ma- ring,|Le- sza- kadt ró-|lam az ing,|Van már né- kem|ked- ve- sem,|Ki meg- varr- ja|az in- gem.-|

